images/icons/v2/text-24.svg

<svg height="24" viewBox="0 0 24 24" width="24" xmlns="http://www.w3.org/2000/svg"><path d="m.5 18.5 5.325-14.5h1.813l5.326 14.5h-1.841l-1.459-4.1h-5.864l-1.459 4.1zm8.612-5.666-2.323-6.534h-.114l-2.323 6.538zm5.188 2.582c0-2.492 2.2-2.939 4.22-3.2 1.984-.255 2.8-.184 2.8-.991v-.057a2.02 2.02 0 0 0 -2.294-2.21 2.94 2.94 0 0 0 -2.826 1.642l-1.586-.567a4.418 4.418 0 0 1 4.363-2.549c1.387 0 4.022.4 4.022 3.852v7.164h-1.671v-1.469h-.084a3.419 3.419 0 0 1 -3.23 1.728c-2.068 0-3.714-1.218-3.714-3.343zm7.024-.85v-1.529c-.282.34-2.18.538-2.888.623-1.3.17-2.465.567-2.465 1.841 0 1.162.962 1.756 2.294 1.756a2.791 2.791 0 0 0 3.063-2.691z"/></svg>

<svg xmlns="http://www.w3.org/2000/svg" viewBox="0 0 24 24"><path d="M.5,18.5,5.825,4H7.638l5.326,14.5H11.123L9.664,14.4H3.8L2.341,18.5Zm8.612-5.666L6.789,6.3H6.675L4.352,12.838ZM14.3,15.416c0-2.492,2.2-2.939,4.22-3.2,1.984-.255,2.8-.184,2.8-.991v-.057a2.019,2.019,0,0,0-1.8-2.219,2.049,2.049,0,0,0-.5.009A2.94,2.94,0,0,0,16.2,10.6l-1.586-.567a4.417,4.417,0,0,1,4.363-2.549c1.387,0,4.022.4,4.022,3.852V18.5H21.328V17.031h-.084a3.419,3.419,0,0,1-3.23,1.728C15.946,18.759,14.3,17.541,14.3,15.416Zm7.024-.85V13.037c-.282.34-2.18.538-2.888.623-1.3.17-2.465.567-2.465,1.841,0,1.162.962,1.756,2.294,1.756a2.791,2.791,0,0,0,3.051-2.5c.006-.062.01-.125.012-.187Z"/></svg>
